X: 40324
T: Tom Billy's
R: jig
M: 6/8
K: Amixolydian
a3 ece|edB BAA|eaa ece|dcB Ace|
a3 ece|edB BAB|GBd ged|fdB Ace:|
|:g3 a3|bag fed|faf g2d|BAB def|
g3 a3|bge gab|age dBA|ABA Ace:|
|:c3 edd|ecA dBA|A3 dBA|A3 aed|
c3 edd|ede gab|age dBe|ABA Ace:|

